X: 88
T: Twe miłosierdzie, Twoje prawdę, wieczny Panie,
C: Mikołaj Gomółka
%%abc-version 2.0
%%abcx-abcm2ps-target-version 5.9.1 (29 Sep 2008)
%%abc-creator hum2abc beta
%%abcx-conversion-date 2021/10/04 07:59:10
%%abc-edited-by Anna Matuszewska
%%abcx-initial-encoding-date 2020-02-15
%%humdrum-veritas 1996290135
%%humdrum-veritas-data 3042960749
%%linebreak <none>
%%barnumbers 0
L: 1/4
M: C|
N: Derived from pl-wn--sd-xvi-qu-273--089_gomolka-mikolaj--twe-milosierdzie-twoje-prawde-wieczny-panie.krn
%%staves [1 2 3 4]
V: 1
V: 2 clef=alto
V: 3 clef=tenor
V: 4 clef=bass
K: F
[V:1] D4F2G2 [I:setbarnb 3][|] 
[V:2] D4D3E [|] 
[V:3] A,4A,2B,2 [|] 
[V:4] D,4D,2G,2 [|] 
[V:1] A4A2G2 [|] 
[V:2] F4F2_E2 [|] 
[V:3] C4D2B,2 [|] 
[V:4] F,2>E,2D,2_E,2 [|] 
[V:1] B2c2d2c4 [|] 
[V:2] G2_E2F2F4 [|] 
[V:3] B,2A,2B,2C4 [|] 
[V:4] E,2C,2B,,2F,4 [|] 
[V:1] B2A4 [|] 
[V:2] F2_E2D2 [|] 
[V:3] D2C2A,2 [|] 
[V:4] B,,2C,2D,2 [|] 
[V:1] G2d2e2d2 [|] 
[V:2] D2G2G2F2 [|] 
[V:3] B,2B,2G,A,B,G, [|] 
[V:4] G,,2G,2E,2B,,2 [|] 
[V:1] c2B4A2 [|] 
[V:2] F2F2G2FE [|] 
[V:3] A,2D2C2C2 [|] 
[V:4] F,2D,2E,2F,2 [|] 
[V:1] B2F2G4 [|] 
[V:2] D2D2D4 [|] 
[V:3] B,2A,2G,4 [|] 
[V:4] B,,2D,2G,,4 [|] 
[V:1] D2F2_E4 [|] 
[V:2] D2D2C4 [|] 
[V:3] F,2B,A,G,F,G,2 [|] 
[V:4] B,,2B,,2C,4 [|] 
[V:1] D8 [|] 
[V:2] ^B,8 [|] 
[V:3] G,8 [|] 
[V:4] G,,8 [|] 


